!!!COM: Nordraak, Rikard
!!!CDT: 1842-1866
!!!OTL: National Anthem, Norway
!!!ENC: Davis, Matthew J.
!!Vocal Line Only
**kern
*clefG2
*k[b-e-]
*B-:
*M4/4
=1-
4.f
8e-
4d
4c
=2
4B-
4c
4d
4e-
=3
4.f
8g
4f
4e-
=4
2d
2r
=5
4.g
8f
4e-
4d
=6
4c
4d
4e-
4f
=7
4.f
8g
4g
4a
=8
2b-
2r
=9
4.b-
8b-
8.a
16a
8.g
16g
=10
2f
2d
=11
4.g
8g
4f
4f
=12
2e-
4r
8.f
16f
=13
4f
4g
4g
4a
=14
2a
2b-
=15
4.b-
8b-
4a
4b-
=16
2cc
4r
8.cc
16cc
=17
4cc
4dd
4ee-
4dd
=18
2cc
4b-
8.a
16g
=19
4..f
16g
4g
4a
=20
2b-
2r
==|!
*-
